frontend/src/assets/svgs/hide.svg

<svg xmlns="http://www.w3.org/2000/svg" style="isolation:isolate" viewBox="0 0 49 49"><defs><clipPath id="hide_svg__a"><path d="M0 0h49v49H0z"/></clipPath></defs><g clip-path="url(#hide_svg__a)"><mask id="hide_svg__b" x="-200%" y="-200%" width="400%" height="400%"><rect x="-200%" y="-200%" width="400%" height="400%" fill="#fff"/><path d="M10 8a2 2 0 0 0-2 2v29a2 2 0 0 0 2 2h29a2 2 0 0 0 2-2V10a2 2 0 0 0-2-2H10z"/></mask><path d="M10 8a2 2 0 0 0-2 2v29a2 2 0 0 0 2 2h29a2 2 0 0 0 2-2V10a2 2 0 0 0-2-2H10z" fill="none" mask="url(#hide_svg__b)" vector-effect="non-scaling-stroke" stroke-width="4" stroke="#5A5A5A"/><mask id="hide_svg__c" x="-200%" y="-200%" width="400%" height="400%"><rect x="-200%" y="-200%" width="400%" height="400%" fill="#fff"/><path d="M24.572 31.666c4.308 0 8.208-2.167 11.701-6.5-3.493-4.334-7.393-6.501-11.701-6.501-4.309 0-8.209 2.167-11.702 6.501 3.493 4.333 7.393 6.5 11.702 6.5z"/></mask><path d="M24.572 31.666c4.308 0 8.208-2.167 11.701-6.5-3.493-4.334-7.393-6.501-11.701-6.501-4.309 0-8.209 2.167-11.702 6.501 3.493 4.333 7.393 6.5 11.702 6.5z" fill="none" mask="url(#hide_svg__c)" vector-effect="non-scaling-stroke" stroke-width="6" stroke="#5A5A5A"/><circle vector-effect="non-scaling-stroke" cx="24.572" cy="25.166" r="5.2" fill="none" stroke-width="3" stroke="#5A5A5A"/><mask id="hide_svg__d" x="-200%" y="-200%" width="400%" height="400%"><rect x="-200%" y="-200%" width="400%" height="400%" fill="#fff"/><path d="M12.421 12.421l24.158 24.158"/></mask><path mask="url(#hide_svg__d)" vector-effect="non-scaling-stroke" stroke-width="4" stroke="#5A5A5A" stroke-linejoin="round" d="M12.421 12.421l24.158 24.158"/></g></svg>

<?xml version="1.0" standalone="no"?><!-- Generator: Gravit.io --><svg xmlns="http://www.w3.org/2000/svg" xmlns:xlink="http://www.w3.org/1999/xlink" style="isolation:isolate" viewBox="0 0 49 49" width="49" height="49"><defs><clipPath id="_clipPath_ceXMMAzpidQhMbSjSNvdZ6MjbjyEDkiM"><rect width="49" height="49"/></clipPath></defs><g clip-path="url(#_clipPath_ceXMMAzpidQhMbSjSNvdZ6MjbjyEDkiM)"><g><mask id="_mask_GqvKZoGYVoQQ3SYFwgMnRNAnSvyq1qYZ" x="-200%" y="-200%" width="400%" height="400%"><rect x="-200%" y="-200%" width="400%" height="400%" style="fill:white;"/><path d=" M 10 8 C 8.895 8 8 8.895 8 10 L 8 39 C 8 40.105 8.895 41 10 41 L 39 41 C 40.105 41 41 40.105 41 39 L 41 10 C 41 8.895 40.105 8 39 8 L 10 8 Z " fill="black" stroke="none"/></mask><path d=" M 10 8 C 8.895 8 8 8.895 8 10 L 8 39 C 8 40.105 8.895 41 10 41 L 39 41 C 40.105 41 41 40.105 41 39 L 41 10 C 41 8.895 40.105 8 39 8 L 10 8 Z " fill="none" mask="url(#_mask_GqvKZoGYVoQQ3SYFwgMnRNAnSvyq1qYZ)" vector-effect="non-scaling-stroke" stroke-width="4" stroke="rgb(90,90,90)" stroke-linejoin="miter" stroke-linecap="butt" stroke-miterlimit="4"/><g><mask id="_mask_WpMS62etHX1x2aFI0VAeZVdq1nmpjMHO" x="-200%" y="-200%" width="400%" height="400%"><rect x="-200%" y="-200%" width="400%" height="400%" style="fill:white;"/><path d=" M 24.572 31.666 C 28.88 31.666 32.78 29.499 36.273 25.166 C 32.78 20.832 28.88 18.665 24.572 18.665 C 20.263 18.665 16.363 20.832 12.87 25.166 C 16.363 29.499 20.263 31.666 24.572 31.666 Z " fill="black" stroke="none"/></mask><path d=" M 24.572 31.666 C 28.88 31.666 32.78 29.499 36.273 25.166 C 32.78 20.832 28.88 18.665 24.572 18.665 C 20.263 18.665 16.363 20.832 12.87 25.166 C 16.363 29.499 20.263 31.666 24.572 31.666 Z " fill="none" mask="url(#_mask_WpMS62etHX1x2aFI0VAeZVdq1nmpjMHO)" vector-effect="non-scaling-stroke" stroke-width="6" stroke="rgb(90,90,90)" stroke-linejoin="miter" stroke-linecap="butt" stroke-miterlimit="4"/><circle vector-effect="non-scaling-stroke" cx="24.571503800000002" cy="25.165650460000002" r="5.20048778" fill="none" stroke-width="3" stroke="rgb(90,90,90)" stroke-linejoin="miter" stroke-linecap="butt" stroke-miterlimit="4"/></g><mask id="_mask_cAv2KJHsw31UzoUPYPkYKbk1SQUuJb4j" x="-200%" y="-200%" width="400%" height="400%"><rect x="-200%" y="-200%" width="400%" height="400%" style="fill:white;"/><line x1="12.421" y1="12.421" x2="36.579" y2="36.579" fill="black" stroke="none"/></mask><line x1="12.421" y1="12.421" x2="36.579" y2="36.579" mask="url(#_mask_cAv2KJHsw31UzoUPYPkYKbk1SQUuJb4j)" vector-effect="non-scaling-stroke" stroke-width="4" stroke="rgb(90,90,90)" stroke-linejoin="round" stroke-linecap="butt" stroke-miterlimit="4"/></g></g></svg>
